public/moon.svg

<svg fill="none" height="46" viewBox="0 0 50 46" width="50" xmlns="http://www.w3.org/2000/svg" xmlns:xlink="http://www.w3.org/1999/xlink"><clipPath id="a"><path d="m0 0h35.9775v35.9594h-35.9775z" transform="matrix(.941122 -.338068 .338457 .940982 3.96997 12.1628)"/></clipPath><ellipse cx="22.9873" cy="23.0001" fill="#fff" rx="22.9873" ry="22.9724"/><g clip-path="url(#a)"><path d="m12.8769 28.0678c.7961 2.2138 2.1026 4.2091 3.8139 5.8245 1.7112 1.6153 3.779 2.8052 6.036 3.4734s4.6397.7959 6.9552.3727c2.3156-.4232 4.4989-1.3853 6.3731-2.8085-3.1881.1294-6.3343-.7612-8.981-2.542s-4.6559-4.3591-5.7352-7.3598-1.1724-6.2672-.2659-9.3245c.9065-3.0572 2.7655-5.74565 5.3064-7.67426-2.352.09496-4.6486.74208-6.7038 1.88896-2.0553 1.1469-3.8114 2.7613-5.1262 4.7125-1.3148 1.9513-2.1513 4.1845-2.4419 6.5189s-.027 4.7044.7694 6.9181z" fill="#000"/></g></svg>

<svg width="50" height="46" viewBox="0 0 50 46" fill="none" xmlns="http://www.w3.org/2000/svg">
<ellipse cx="22.9873" cy="23.0001" rx="22.9873" ry="22.9724" fill="white"/>
<g clip-path="url(#clip0_335_322)">
<path d="M12.8769 28.0678C13.673 30.2816 14.9795 32.2769 16.6908 33.8923C18.402 35.5076 20.4698 36.6975 22.7268 37.3657C24.9838 38.0339 27.3665 38.1616 29.682 37.7384C31.9976 37.3152 34.1809 36.3531 36.0551 34.9299C32.867 35.0593 29.7208 34.1687 27.0741 32.3879C24.4274 30.6071 22.4182 28.0288 21.3389 25.0281C20.2596 22.0274 20.1665 18.7609 21.073 15.7036C21.9795 12.6464 23.8385 9.95795 26.3794 8.02934C24.0274 8.1243 21.7308 8.77142 19.6756 9.9183C17.6203 11.0652 15.8642 12.6796 14.5494 14.6308C13.2346 16.5821 12.3981 18.8153 12.1075 21.1497C11.8169 23.4841 12.0805 25.8541 12.8769 28.0678Z" fill="black"/>
</g>
<defs>
<clipPath id="clip0_335_322">
<rect width="35.9775" height="35.9594" fill="white" transform="matrix(0.941122 -0.338068 0.338457 0.940982 3.96997 12.1628)"/>
</clipPath>
</defs>
</svg>
